X:290
T: Dancing Rat
C: P.Reddan
S: P.Reddan: "Knockanalban"
L: 1/8
M: 6/8
R: jig
K: Em
B,|EGB GBe|Bgd edB|Add BdA|BAF EDB,|
EGB GBE|dAG FAd|CGE ceg|dAF E2 :|
A|Bef gfe|dAF FDB,|efd ede|fdf e2f|
g2b afd|Bdg fdA|CEG ceg|dAF E2 :|
